brands/nederlandse-spoorwegen.svg

<svg xmlns="http://www.w3.org/2000/svg" width="51" height="20" viewBox="0 0 51 20">
    <path fill="#003082" d="M22.358,9.6A5.543,5.543,0,0,0,18.448,8H7.62l4.01-4H21.757a1.612,1.612,0,0,1,1.1.5l5.915,5.9a5.543,5.543,0,0,0,3.91,1.6H43.513L39.5,16H29.376a1.612,1.612,0,0,1-1.1-.5Zm3.108,8.7a6.1,6.1,0,0,0,3.91,1.7h11.73L51.133,10,41.107,0H35.492l8.021,8H32.685a2.11,2.11,0,0,1-1.1-.4L25.667,1.7A6.1,6.1,0,0,0,21.757,0H10.026L0,10,10.026,20h5.615L7.62,12H18.448a2.109,2.109,0,0,1,1.1.4Z"/>
</svg>

<svg xmlns="http://www.w3.org/2000/svg" viewBox="0 0 51 20"><path fill="#003082" d="M22.36 9.6A5.54 5.54 0 0 0 18.45 8H7.62l4.01-4h10.13a1.61 1.61 0 0 1 1.1.5l5.91 5.9a5.54 5.54 0 0 0 3.91 1.6h10.83l-4.01 4H29.38a1.61 1.61 0 0 1-1.1-.5Zm3.1 8.7a6.1 6.1 0 0 0 3.92 1.7H41.1l10.02-10L41.11 0h-5.62l8.02 8H32.7a2.11 2.11 0 0 1-1.1-.4l-5.92-5.9A6.1 6.1 0 0 0 21.76 0H10.03L0 10l10.03 10h5.61l-8.02-8h10.83a2.1 2.1 0 0 1 1.1.4Z"/></svg>
